X: 41
T: Bleking efter J. L. Wahlén
T: (ur Blekingeboken 1936)
S: Nils Ståhlbers uppteckningar
O: Habo, Västergötland
Z: Åke Persson (2009-09-14) efter not i Blekingeboken 1936
R: Bleking
L: 1/8
M: 3/4
K: D
F2 G2 F2 | EE cc dd | FF GG FF | EE cc d2 :|
|: f2 d2 f2 | gf e/2d/2e/2f/2 gg | ff dd ff  | gf e/2d/2e/2f/2 gg | ff ee ff | g/f/e/e/ d2>z2 :|

